X:1
T:Thirsk, LM
T:Thirsk, LM
T:W. A. Wrigley, 1885
T:Public Domain Courtesy of the Cyber Hymnal™
C:W. A. Wrigley, 1885
Z:Public Domain
Z:Courtesy of the Cyber Hymnal™
%%score ( 1 2 ) ( 3 4 )
L:1/8
Q:1/4=113
M:4/4
K:Ab
V:1 treble 
V:2 treble 
V:3 bass 
V:4 bass 
V:1
 E2 | [CE]2 [CA]2 [DG]3 [DF] | [CE]2 [Ec]2 [Fc]2 [FB]2 | [EA]2 [CA]2 [=Dc]3 [DB] | %4
 [=DA]2 [DF]2 E2 E2 | [DB]3 [DB] [DB]2 [CA]2 | [=EA]2 [EG]2 [EG]2 F2 | [CE]2 [Ee]2 [Ec]2 [EA]2 | %8
 [DB]3 [CA] [CA]2 |] %9
V:2
 E2 | x8 | x8 | x8 | x4 E2 E2 | x8 | x6 F2 | x8 | x6 |] %9
V:3
 E,2 | [A,,A,]2 [A,,A,]2 [B,,E,]3 [B,,G,] | [C,A,]2 [C,A,]2 [D,A,]2 [D,B,]2 | %3
 [E,C]2 [F,A,]2 [B,,A,]3 [B,,G,] | [B,,F,]2 [B,,A,]2 [E,G,]2 E,2 | [E,G,]3 [E,G,] [=E,G,]2 F,2 | %6
 [C,C]2 [C,B,]2 [D,B,]2 [D,A,]2 | [E,A,]2 [E,C]2 [E,A,]2 [E,C]2 | [E,G,]3 [A,,A,] [A,,A,]2 |] %9
V:4
 E,2 | x8 | x8 | x8 | x6 E,2 | x6 F,2 | x8 | x8 | x6 |] %9

